svgs/sharp-regular/signature.svg

<svg xmlns="http://www.w3.org/2000/svg" viewBox="0 0 640 512"><!--! Font Awesome Pro 6.6.0 by @fontawesome - https://fontawesome.com License - https://fontawesome.com/license (Commercial License) Copyright 2024 Fonticons, Inc. --><path d="M176 128c0-26.5 21.5-48 48-48s48 21.5 48 48l0 7.9c0 27.5-2.3 55-7 82.1L112.9 265.1 96 270.3 96 288l0 168 0 24 24 0 72 0 13.6 0 7-11.7 29.3-48.8c29.6-49.4 51.1-103.3 63.6-159.5l1-4.7 110.8-34.3-23.9 66.8L381.9 320l34.1 0 136 0 24 0 0-48-24 0-101.9 0 28.5-79.9 16.1-45.2-45.8 14.2-133 41.2c2.7-22 4.1-44.2 4.1-66.4l0-7.9c0-53-43-96-96-96s-96 43-96 96l0 40 0 24 48 0 0-24 0-40zM144 305.7l109.1-33.8c-11.7 43.2-29.4 84.5-52.4 123L178.4 432 144 432l0-126.3zM64 368l-40 0L0 368l0 48 24 0 40 0 0-48zm216.8 48L616 416l24 0 0-48-24 0-311.9 0c-7 16.3-14.8 32.4-23.3 48z"/></svg>

<svg xmlns="http://www.w3.org/2000/svg" viewBox="0 0 640 512"><!--! Font Awesome Pro 6.4.2 by @fontawesome - https://fontawesome.com License - https://fontawesome.com/license (Commercial License) Copyright 2023 Fonticons, Inc. --><path d="M176 128c0-26.5 21.5-48 48-48s48 21.5 48 48v7.9c0 27.5-2.3 55-7 82.1L112.9 265.1 96 270.3V288 456v24h24 72 13.6l7-11.7 29.3-48.8c29.6-49.4 51.1-103.3 63.6-159.5l1-4.7 110.8-34.3-23.9 66.8L381.9 320H416 552h24V272H552 450.1l28.5-79.9 16.1-45.2-45.8 14.2-133 41.2c2.7-22 4.1-44.2 4.1-66.4V128c0-53-43-96-96-96s-96 43-96 96v40 24h48V168 128zM144 305.7l109.1-33.8c-11.7 43.2-29.4 84.5-52.4 123L178.4 432H144V305.7zM64 368H24 0v48H24 64V368zm216.8 48H616h24V368H616 304.1c-7 16.3-14.8 32.4-23.3 48z"/></svg>
